X: 10559
T: Dorothy Leurs
R: jig
M: 6/8
K: Amajor
|:e|f2e c2B|ABc AFF|EAA cee|fee A2e|
f2e c2B|ABc AFF|EAA f2e|cAA A2:|
|:g|a2f g2e|eff dec|e2f e2c|f2g fee|
agf gfe|fff d2c|Ace f2e|cAA A2:|

